icons/slideshow-3-line.svg

<svg viewBox="0 0 24 24" fill="currentColor" xmlns="http://www.w3.org/2000/svg">
    <path d="M13 18V20H17V22H7V20H11V18H3C2.44772 18 2 17.5523 2 17V4C2 3.44772 2.44772 3 3 3H21C21.5523 3 22 3.44772 22 4V17C22 17.5523 21.5523 18 21 18H13ZM4 5V16H20V5H4ZM10 7.5L15 10.5L10 13.5V7.5Z"/>
</svg>

<svg xmlns="http://www.w3.org/2000/svg" viewBox="0 0 24 24">
    <g>
        <path fill="none" d="M0 0h24v24H0z"/>
        <path d="M13 18v2h4v2H7v-2h4v-2H3a1 1 0 0 1-1-1V4a1 1 0 0 1 1-1h18a1 1 0 0 1 1 1v13a1 1 0 0 1-1 1h-8zM4 5v11h16V5H4zm6 2.5l5 3-5 3v-6z"/>
    </g>
</svg>
